X:108
T:Dutchess of Athol’s Strathspey, The TS.108
M:C|
L:1/8
Q:1/2=60
S:Thomas Sands’ MS,1810,Lincolnshire
R:strathspey
O:England;Lincolnshire
Z:vmp.Ruairidh Greig, 2011
K:A
A”rpt. added”|:E>Ac>A (B/c/B/)A/ “tr”F2|E>Ac>A e>Ac2|d>f c>a (B/c/B/A/)F2|E>Ac>AB2A2:|
|:e>ca>c (d/c/B/A/)F2|e>ca>c (f/e/f/g/)a2|feac (d/c/B/A/)F2|E>Ac>AB2A2:|
|:A,>Ac>A F>BG>E|A,Ac>A e>Ac2|d>f c>a (B/c/B/A/)F2|A,>Ac>AB2A2:|
|:(A/B/c/d/) e>c a>ec>e|(A/B/c//d/) e>c a>ce>c|d>f c>a (B/c/B/A/)F2|A,>Ac>A B2A2:|]

